!!!COM: De Puy, Johannes Corstianus
!!!CDT: 1835-1924
!!!OTL: National Anthem, Surinam
!!!ENC: Davis, Matthew J.
!!Vocal Line Only
**kern
*clefG2
*k[b-e-a-]
*E-:
*M4/4
=1-
8.e-
16g
=2
4b-
4b-
4cc
4b-
=3
2ee-
4b-
8.cc
16b-
=4
4f
4g
4a-
4b-
=5
2.g
8.e-
16g
=6
4b-
4b-
4cc
4b-
=7
2ee-
4dd
8.b-
16g
=8
4f
4b-
4.an
8cc
=9
2.b-
8.f
16g
=10
4a-
4g
4a-
4cc
=11
2b-
4g
8.f
16g
=12
4a-
4g
4a-
4cc
=13
2.b-
8.b-
16b-
=14
4ee-
4dd
4cc
4b-
=15
4.a-
8b-
4cc
8.cc
16cc
=16
4.b-
8g
4b-
8a-
8f
=17
2.e-
==|!
*-
